rospo-dark/16x16/actions/snap-text-baseline.svg

<svg height="16" viewBox="0 0 16 16" width="16" xmlns="http://www.w3.org/2000/svg"><path d="m7 1-3.9277344 11h-2.0722656v3h3.5l1.0625-3h4.875l1.0625 3h2.78125l-5.28125-14zm1 4 1.75 5h-3.5z" fill="#d3dae3"/></svg>

<?xml version="1.0" encoding="UTF-8" standalone="no"?>
<svg xmlns="http://www.w3.org/2000/svg" width="22" height="22" viewBox="0 0 22 22">
 <defs>
  <style type="text/css" id="current-color-scheme">
   .ColorScheme-Text { color:#d3dae3; } .ColorScheme-Highlight { color:#5294e2; }
  </style>
 </defs>
 <path style="fill:currentColor;opacity:1" class="ColorScheme-Text" transform="translate(3 3)" d="M 7 1 L 3.0722656 12 L 1 12 L 1 15 L 4.5 15 L 5.5625 12 L 10.4375 12 L 11.5 15 L 14.28125 15 L 9 1 L 7 1 z M 8 5 L 9.75 10 L 6.25 10 L 8 5 z"/>
</svg>
